src/assets/outline/EmptyWalletRemove.svg

<svg width="24" height="24" viewBox="0 0 24 24"  xmlns="http://www.w3.org/2000/svg">
<path d="M17.74 22.75H7.63C7.31 22.75 7.03 22.55 6.92 22.26C6.81 21.96 6.9 21.63 7.14 21.43C7.38 21.23 7.6 20.97 7.76 20.69C8.08 20.18 8.24 19.6 8.24 19.01C8.24 17.22 6.78 15.76 4.99 15.76C4.25 15.76 3.55 16.01 2.96 16.48C2.73 16.66 2.43 16.69 2.17 16.57C1.91 16.45 1.75 16.18 1.75 15.89V11.52C1.75 9.03002 3.77 7.01001 6.26 7.01001H17.74C20.23 7.01001 22.25 9.03002 22.25 11.52V12.96C22.25 13.37 21.91 13.71 21.5 13.71H19.48C19.13 13.71 18.81 13.84 18.58 14.08L18.57 14.09C18.29 14.36 18.16 14.73 18.19 15.11C18.25 15.77 18.88 16.3 19.6 16.3H21.5C21.91 16.3 22.25 16.64 22.25 17.05V18.24C22.25 20.73 20.23 22.75 17.74 22.75ZM9.18 21.25H17.74C19.4 21.25 20.75 19.9 20.75 18.24V17.8H19.6C18.09 17.8 16.81 16.68 16.69 15.24C16.61 14.42 16.91 13.61 17.51 13.02C18.03 12.49 18.73 12.2 19.48 12.2H20.75V11.51C20.75 9.85001 19.4 8.5 17.74 8.5H6.26C4.6 8.5 3.25 9.85001 3.25 11.51V14.59C3.81 14.37 4.4 14.25 5 14.25C7.62 14.25 9.75 16.38 9.75 19C9.75 19.79 9.55 20.57 9.18 21.25Z" />
<path d="M2.5 13.16C2.09 13.16 1.75 12.82 1.75 12.41V7.84006C1.75 6.35006 2.69 5.00001 4.08 4.47001L12.02 1.47001C12.84 1.16001 13.75 1.27005 14.46 1.77005C15.18 2.27005 15.6 3.08005 15.6 3.95005V7.75003C15.6 8.16003 15.26 8.50003 14.85 8.50003C14.44 8.50003 14.1 8.16003 14.1 7.75003V3.95005C14.1 3.57005 13.92 3.22003 13.6 3.00003C13.28 2.78003 12.9 2.73003 12.54 2.87003L4.6 5.87003C3.79 6.18003 3.24 6.97006 3.24 7.84006V12.41C3.25 12.83 2.91 13.16 2.5 13.16Z" />
<path d="M19.6 17.7999C18.09 17.7999 16.81 16.6799 16.69 15.2399C16.61 14.4099 16.91 13.5999 17.51 13.0099C18.02 12.4899 18.72 12.2 19.47 12.2H21.55C22.54 12.23 23.3 13.0099 23.3 13.9699V16.03C23.3 16.99 22.54 17.7699 21.58 17.7999H19.6ZM21.53 13.7H19.48C19.13 13.7 18.81 13.8299 18.58 14.0699C18.29 14.3499 18.15 14.7299 18.19 15.1099C18.25 15.7699 18.88 16.2999 19.6 16.2999H21.56C21.69 16.2999 21.81 16.18 21.81 16.03V13.9699C21.81 13.8199 21.69 13.71 21.53 13.7Z" />
<path d="M14 12.75H7C6.59 12.75 6.25 12.41 6.25 12C6.25 11.59 6.59 11.25 7 11.25H14C14.41 11.25 14.75 11.59 14.75 12C14.75 12.41 14.41 12.75 14 12.75Z" />
<path d="M5 23.75C3.34 23.75 1.78 22.87 0.939999 21.44C0.489999 20.72 0.25 19.87 0.25 19C0.25 17.54 0.899999 16.19 2.03 15.29C2.87 14.62 3.93 14.25 5 14.25C7.62 14.25 9.75 16.38 9.75 19C9.75 19.87 9.51 20.72 9.06 21.45C8.82 21.87 8.49 22.25 8.11 22.57C7.28 23.33 6.17 23.75 5 23.75ZM5 15.75C4.26 15.75 3.56 16 2.97 16.47C2.2 17.08 1.75 18.01 1.75 19C1.75 19.59 1.91 20.17 2.22 20.67C2.81 21.67 3.85 22.25 5 22.25C5.79 22.25 6.55 21.96 7.13 21.44C7.39 21.22 7.61 20.96 7.77 20.68C8.09 20.17 8.25 19.59 8.25 19C8.25 17.21 6.79 15.75 5 15.75Z" />
<path d="M6.0699 20.7899C5.8799 20.7899 5.6899 20.72 5.5399 20.57L3.4299 18.46C3.1399 18.17 3.1399 17.69 3.4299 17.4C3.7199 17.11 4.1999 17.11 4.4899 17.4L6.5999 19.51C6.8899 19.8 6.8899 20.28 6.5999 20.57C6.4499 20.72 6.2599 20.7899 6.0699 20.7899Z" />
<path d="M3.93012 20.8199C3.74012 20.8199 3.55012 20.7499 3.40012 20.5999C3.11012 20.3099 3.11012 19.8299 3.40012 19.5399L5.51011 17.4299C5.80011 17.1399 6.28012 17.1399 6.57012 17.4299C6.86012 17.7199 6.86012 18.1999 6.57012 18.4899L4.46011 20.5999C4.31011 20.7499 4.12012 20.8199 3.93012 20.8199Z" />
</svg>

<?xml version="1.0" encoding="UTF-8"?>
<svg width="24" height="24" viewBox="0 0 24 24" xmlns="http://www.w3.org/2000/svg">
 <path d="m17.74 22.75h-10.11c-0.32 0-0.6-0.2-0.71-0.49-0.11-0.3-0.02-0.63 0.22-0.83s0.46-0.46 0.62-0.74c0.32-0.51 0.48-1.09 0.48-1.68 0-1.79-1.46-3.25-3.25-3.25-0.74 0-1.44 0.25-2.03 0.72-0.23 0.18-0.53 0.21-0.79 0.09s-0.42-0.39-0.42-0.68v-4.37c0-2.49 2.02-4.51 4.51-4.51h11.48c2.49 0 4.51 2.02 4.51 4.51v1.44c0 0.41-0.34 0.75-0.75 0.75h-2.02c-0.35 0-0.67 0.13-0.9 0.37l-0.01 0.01c-0.28 0.27-0.41 0.64-0.38 1.02 0.06 0.66 0.69 1.19 1.41 1.19h1.9c0.41 0 0.75 0.34 0.75 0.75v1.19c0 2.49-2.02 4.51-4.51 4.51zm-8.56-1.5h8.56c1.66 0 3.01-1.35 3.01-3.01v-0.44h-1.15c-1.51 0-2.79-1.12-2.91-2.56-0.08-0.82 0.22-1.63 0.82-2.22 0.52-0.53 1.22-0.82 1.97-0.82h1.27v-0.69c0-1.66-1.35-3.01-3.01-3.01h-11.48c-1.66 0-3.01 1.35-3.01 3.01v3.08c0.56-0.22 1.15-0.34 1.75-0.34 2.62 0 4.75 2.13 4.75 4.75 0 0.79-0.2 1.57-0.57 2.25z"/>
 <path d="m2.5 13.16c-0.41 0-0.75-0.34-0.75-0.75v-4.5699c0-1.49 0.94-2.84 2.33-3.37l7.94-3c0.82-0.31 1.73-0.19996 2.44 0.30004 0.72 0.5 1.14 1.31 1.14 2.18v3.8c0 0.41-0.34 0.75-0.75 0.75s-0.75-0.34-0.75-0.75v-3.8c0-0.38-0.18-0.73002-0.5-0.95002s-0.7-0.27-1.06-0.13l-7.94 3c-0.81 0.31-1.36 1.1-1.36 1.97v4.5699c0.01 0.42-0.33 0.75-0.74 0.75z"/>
 <path d="m19.6 17.8c-1.51 0-2.79-1.12-2.91-2.56-0.08-0.83 0.22-1.64 0.82-2.23 0.51-0.52 1.21-0.8099 1.96-0.8099h2.08c0.99 0.03 1.75 0.8099 1.75 1.7699v2.0601c0 0.96-0.76 1.7399-1.72 1.7699h-1.98zm1.93-4.0999h-2.05c-0.35 0-0.67 0.1299-0.9 0.3699-0.29 0.28-0.43 0.66-0.39 1.04 0.06 0.66 0.69 1.19 1.41 1.19h1.96c0.13 0 0.25-0.1199 0.25-0.2699v-2.0601c0-0.15-0.12-0.2599-0.28-0.2699z"/>
 <path d="m14 12.75h-7c-0.41 0-0.75-0.34-0.75-0.75s0.34-0.75 0.75-0.75h7c0.41 0 0.75 0.34 0.75 0.75s-0.34 0.75-0.75 0.75z"/>
 <path d="m5 23.75c-1.66 0-3.22-0.88-4.06-2.31-0.45-0.72-0.69-1.57-0.69-2.44 0-1.46 0.65-2.81 1.78-3.71 0.84-0.67 1.9-1.04 2.97-1.04 2.62 0 4.75 2.13 4.75 4.75 0 0.87-0.24 1.72-0.69 2.45-0.24 0.42-0.57 0.8-0.95 1.12-0.83 0.76-1.94 1.18-3.11 1.18zm0-8c-0.74 0-1.44 0.25-2.03 0.72-0.77 0.61-1.22 1.54-1.22 2.53 0 0.59 0.16 1.17 0.47 1.67 0.59 1 1.63 1.58 2.78 1.58 0.79 0 1.55-0.29 2.13-0.81 0.26-0.22 0.48-0.48 0.64-0.76 0.32-0.51 0.48-1.09 0.48-1.68 0-1.79-1.46-3.25-3.25-3.25z"/>
 <path d="m6.0699 20.79c-0.19 0-0.38-0.0699-0.53-0.2199l-2.11-2.11c-0.29-0.29-0.29-0.77 0-1.06s0.77-0.29 1.06 0l2.11 2.11c0.29 0.29 0.29 0.77 0 1.06-0.15 0.15-0.34 0.2199-0.53 0.2199z"/>
 <path d="m3.9301 20.82c-0.19 0-0.38-0.07-0.53-0.22-0.29-0.29-0.29-0.77 0-1.06l2.11-2.11c0.29-0.29 0.77001-0.29 1.06 0s0.29 0.77 0 1.06l-2.11 2.11c-0.15 0.15-0.33999 0.22-0.52999 0.22z"/>
</svg>
